X:1
T:Italian Polka
T:Italian Polka
T:Sergei Vasilievich Rachmaninoff
T:Серге́й Васи́льевич Рахма́нинов
C:Sergei Vasilievich Rachmaninoff
Z:Серге́й Васи́льевич Рахма́нинов
%%score { ( 1 4 ) | ( 2 3 ) }
L:1/8
Q:1/4=72
M:2/4
K:Gb
V:1 treble nm="Piano" snm="Pno."
V:4 treble 
V:2 treble 
V:3 treble 
V:1
!pp!"^Allegretto" z/!8va(! (b/e'/g'/ |"_delicato" .b')(b'/c''/ .b').g' | .a'.b' !tenuto!b'2 | %3
 (b'b'/c''/ .b').f' | .g'.b' !tenuto!b'2 |!<(! .e''.e''.e''.e''!<)! | (e''/d''/c''/b'/ .a')(c'' | %7
!>(! .b').b'.b'.b' | (b'/a'/g'/f'/ e'/)(b/e'/g'/!>)! | .b')(b'/c''/ .b').g' | %10
 .a'.b' b'/(b/=d'/f'/ | .b')b'/c''/ .b'.f' | .g'.b' b'/(e'/g'/b'/ | %13
"_poco cresc." .e'').e''.e''.e'' | .e''(.e''/.d''/ .c''/.b'/.a'/.c''/ | %15
!>(! .b'/.=a'/.b'/.a'/ .b'/.c''/.=c''/.=d''/!>)! | %16
"_poco rit."[Q:3/16=80]!>(! .e''/._c''/[Q:1/4=55].b'/.g'/!>)! .e'/)!8va)!!mf![Q:1/4=60]"^a tempo ma rubato" (B/e/g/ | %17
 b)(b/c'/ .b)(g | .a).b !tenuto!b2 | (bb/c'/ .b)f | .g.[Bb] !tenuto![Bb]2 |!<(! (e'e'e'e' | %22
 e'/d'/c'/b/ a)(c'!<)! | .b)(.[Bb].[Bb].[Bb] | b/a/g/f/ e/) (=c/e/g/ | [eb])(b/c'/ bg | %26
 .a).b !tenuto!b2 |"_cresc." (bb/c'/ b/f/_f/=f/ | .g).b (b/=c'/d'/=d'/ | e'e'e'e' | %30
"_dim." e'/d'/c'/b/ a)c' | ([Bb]/[=A=a]/[Bb]/[Aa]/ [Bb]/[cc']/[=c=c']/[=d=d']/ | %32
 [egbe']2)!>(! z/ (.e/.b/.e'/!>)! || %33
[K:Eb]!pp!"_con grazia" .[bg']/.[af']/.[ge']/.[fd']/.[ec']/.[db]/.[ca]/.[Bg]/) | %34
 (.[=A^f]/.[Bg]/.[cf]/.[Bg]/.[Af]/.[Bg]/.[ca]/.[db]/ | %35
 .[ec']/.[db]/.[ca]/.[Bg]/.[ca]/.[Bg]/.[Af]/.[Ge]/ | %36
 .[Fd]/.[Ge]/.[Af]/.[Bg]/.[ca]/.[db]/.[ec']/.[fd']/) | %37
 (.[af']/.[ge']/.[fd']/.[ec']/.[db]/.[ca]/.[Bg]/.[Af]/ | %38
 .[G=e]/.[Ff]/.[=Eg]/.[Ff]/.[Ge]/.[Af]/.[Bg]/.[ca]/) | %39
 (.[db]/.[ca]/.[Bg]/.[Af]/)(.[Bg]/.[Af]/.[Ge]/.[Fd]/) | %40
!<(! ([Ee]/[Ff]/[Gg]/[Aa]/ [Bb]/[cc']/[=dd']/[ee']/)!<)! | %41
!mf! (.[e'g']/.[d'f']/.[c'e']/.[bd']/.[ac']/.[gb]/.[fa]/.[eg]/ | %42
 .[d^f]/.[eg]/.[df]/.[eg]/.[df]/.[eg]/.[=fa]/.[gb]/) | %43
 (.[ac']/.[gb]/.[fa]/.[eg]/.[fa]/.[eg]/.[df]/.[ce]/) | %44
 ([Bd]/[ce]/).[Bd]/.[=A^c]/.[Bd]/"^cresc."([bd']/[ac']/[gb]/ | %45
{/b} [f=a]/[gb]/).[fa]/.[=e^g]/.[fa]/!<(!([=ge']/[fd']/[_ec']/ | %46
{/c'} [db]/[_ec']/).[db]/.[^c=a]/.[dc']/([_af']/[ge']/[fd']/ | %47
 [ec']/[db]/[c=a]/[Bg]/[=Af]/[Ge]/[Fd]/[Ec]/ | [DB][Fd]/[Bf]/!<)!!f! [db]) [Bb]/[Bb]/ | %49
 ([=A=a][Bb])([Aa][Bb]) | ([_A_a]/=d/f/b/ !>!b')[Bb]/[Bb]/ | [=A=a]([Bb][Aa]).[Bb] | %52
 ([Gceg]/B/e/b/ !>!b')(.[Bb]/.[Bb]/ | .[ge']/.[fd']/.[bg']/.[af']/.[ge']/.[bd']/.[=ac']/.[gb]/ | %54
 [dd']).[f_a] .[fa]/(.[ac']/.[gb]/.[fa]/ | [dd']).[f_a] .[fa]/(.[ac']/.[gb]/.[fa]/ | %56
 [cc']/)([Ee]/[Ff]/[_G_g]/ [=G=g]/[Aa]/[=A=a]/[Bb]/) | ([=A=a][Bb])([Aa][Bb]) | %58
 ([_A_a]/=d/f/b/ !>!b')[Bb]/[Bb]/ | [=A=a]([Bb][Aa]).[Bb] | %60
 ([Gceg]/B/e/b/ !>!b')"^cresc."(.[_db]/.[=db]/ | [ge']/[fd']/[bg']/[af']/[ge']/[fd']/[d=b]/[fd']/ | %62
 [fd']/[ec']/[d=b]/[ec']/[Af]/[Bg]/[d_b]/[ca]/ | %63
 [Bg]/[ca]/[^c=a]/[db]/ [e_c']/[=e=c']/[f_d']/[^f=d']/ |!>(! [ge']) z z/ (B,/E/[D_G]/!>)! || %65
[K:Gb]!mf![Q:1/4=112]"^Poco più mosso" b>c' bg | ab !tenuto!b2) | b>c' bf | gb !tenuto!b2 | %69
 (e'e'e'e' | [c'e']/[bd']/[ac']/[gb]/ a)(c' | bbbb |!>(! b/a/g/f/ e/) (B/[=Ae]/[Ag]/!>)! | %73
 .b)(b/c'/ .[Bb]).[Gg] | .[Aa].[Bb] !tenuto![Bb] z | .[Bb]([Bb]/[_cc']/ .[Bb]).[Gg] | %76
 .[Gg].[Bb] !tenuto![Bb] z | (!tenuto!e'2 !tenuto!e'2 | !tenuto!e'3 c') | %79
"_dim." [Bb]/[c=a]/[=cb]/[da]/ [=db]/[ec']/[_fd']/[=f=d']/ | [ge']/!>(! x/ x x2!>)! || %81
[K:Eb]!pp![Q:1/4=96]"^Più mosso" .[e'g']/.[d'f']/.[c'e']/.[bd']/"^leggierissimo".[ac']/.[gb]/.[fa]/.[eg]/ | %82
 .[d^f]/.[eg]/.[df]/.[eg]/.[df]/.[eg]/.[=fa]/.[gb]/ | %83
 .[ac']/.[gb]/.[fa]/.[eg]/.[fa]/.[eg]/.[df]/.[ce]/ | %84
 .[Bd]/.[ce]/.[df]/.[eg]/.[fa]/.[gb]/.[ac']/.[bd']/ | %85
{/[^c'=e']} .[d'f']/.[=c'_e']/.[bd']/.[ac']/.[gb]/.[fa]/.[eg]/.[df]/ | %86
 .[^c=e]/.[df]/.[ce]/.[df]/.[ce]/.[df]/.[eg]/.[fa]/ | %87
"_molto cresc." .[gb]/.[fa]/.[eg]/.[df]/.[eg]/.[df]/.[ce]/.[_cd]/ | %88
!<(! .[Ge]/(.[Af]/.[Bg]/.[ca]/.[db]/.[ec']/.[fd']/.[ge']/!<)! | %89
!f! .[bg']/).[af']/.[ge']/.[fd']/.[ec']/.[db]/.[ca]/.[Bg]/ | %90
 .[=A^f]/.[Bg]/.[Af]/.[Bg]/.[Af]/.[Bg]/.[ca]/.[db]/ | %91
 .[ec']/.[db]/.[ca]/.[Bg]/.[ca]/.[Bg]/.[Af]/.[Ge]/ | %92
!>(! .[Fd]/.[Ge]/.[Fd]/.[=E^c]/!>)! (6:4:6[Fd]/(b/=a/_a/g/_g/ | %93
 (6:4:6f/=A/c/e/=e/g/(6:4:6f/)(=a/=e'/d'/c'/=b/ | %94
 (6:4:6b/d/f/_g/=a/c'/(6:4:6b/)"_cresc."(!courtesy!=g'/f'/e'/d'/_d'/ | z c'2 f | %96
 [Bb]2) z!ff! [Bb]/[Bb]/ |"^rall." !>![=A=a]!>![Bf_ab]!>![Aeg=a]!>![_Be_g_b] | %98
 (6:4:6([_A_a]/B/d/f/a/b/ !^!b')[Bb]/[Bb]/ | !>![=A=a](!>![Begb][Ad^fa])!>![B_d=fb] | %100
 (6:4:6([Gg]/B/c/e/g/b/ !^!b')([Bb]/[Bb]/ | [ee']/[dd']/[gg']/[ff']/[ee']/[dd']/[cc']/[Bb]/ | %102
!<(! [dd'])[fa]!<)! [fa]/ ([dd']/[cc']/[Bb]/ |!<(! [dd']a!<)! .a/) ([!courtesy!=cc']/[Bb]/[Aa]/ | %104
 [cegc'][eg] [eg])"_subito".[_db]/!p!.[=db]/ | .[e=a].[gb].[ea].[gb] | %106
 (6:4:6(_a/b/=b/c'/_d'/=d'/ (3b'/d'/c'/.[e_b]/).[=eb]/ | .[f=a].[_ab].[f=a].[_ab] | %108
 (6:4:6(g/a/=a/b/=b/c'/(6:4:6b'/"_cresc. e accel."c'/_c'/_b/a/_a/) | %109
 (6:4:6(g/b/e'/!8va(!g'/a'/=a'/(6:4:6b'/g''/f''/e''/d''/c''/ | %110
 (6:4:6=b'/c''/_a'/f'/d'/c'/!8va)! (6:4:6_c'/a/e/_c/_d/=d/) | %111
 (6:4:6e/=e/f/_g/=g/a/(6:4:6=a/b/=b/c'/_d'/=d'/ | %112
 (6:4:6e'/b/g/e/[I:staff +1]c/B/!<(!!8va(![I:staff -1](6:4:6(_c'/_d'/=d'/e'/f'/^f'/!<)! | %113
 (6:4:6[bg']/e'/c'/b/)!8va)![I:staff +1]g/e/!8va(!!<(![I:staff -1] [e'_c'']/[=e'=c'']/[f'_d'']/[^f'=d'']/!<)! | %114
!ff! !>![e'g'e'']!8va)!"_brillante"(3G/A/B/ (6:4:6c/d/e/f/g/a/ | %115
 (6:4:6b/c'/d'/!8va(!e'/f'/g'/ (6:4:6a'/b'/c''/d''/e''/f''/ | %116
 [g'b'g'']!8va)! z"^rit."!>(! !>!E2-[Q:1/4=80] |[Q:3/16=80] E2- E/!>)!!mf![Q:1/4=50] B,/E/_G/ | %118
[Q:1/4=40]"^Meno mosso" z !tenuto![Be_gb]2 z | %119
[Q:1/4=20] !tenuto![Beb]<!8va(![e'b']!8va)! z/!p![Q:1/4=50]"^Tempo primo" (B/e/_g/ || %120
[K:Gb] b)([Bb]/[cc']/ .[Bb]).[Bb] | %121
 !tenuto!!fermata![egbe']2!pp!!8va(!{b'=c''=d''} e''!8va)! !fermata!z |] %122
V:2
 z2 | z .[egb] z .[Bgb] | z .[fab] !tenuto![ab=d']2 | z .[Bab] z .[=dab] | %4
 z .[egb] !tenuto![gbe']2 | z .[egbe'] z .[d=gbe'] | z [ceae'] z2 | B.[f=d'].[ge'].[af'] | %8
 z !tenuto![bg'] z2 | (e.[gb]).B.[gb] | .f.[ab](B.[ab]) | .f.[ab].B.[ab] | .e.[gb](B.[gb]) | %13
 .e.[gbe'].d.[=gbe'] | (.e'/.d'/.c'/.b/ .a.c') | B.[c'a'].[bg'].[af'] | .[ge'].B .[eg]/ z/ z | %17
[K:bass] ([E,,B,,G,].[G,B,E])([G,,E,B,].[B,EG]) | ([F,,B,,A,].[A,B,F]) !tenuto![A,B,FA]2 | %19
 ([F,,B,,A,].[A,B,F])(B,,.[A,B,=D]) | [E,,B,,G,][G,B,]-[=DF][=CE] | %21
 ([E,B,G].[B,EG])([D,B,=G].[B,EG]) | ([C,A,E].[CEA])(F,,.[A,CE]) | %23
 B,,, ([F,A,B,=D][G,B,=CE][A,B,DF] | !tenuto!G4) | ([G,B,E].[E,,B,,G,])([B,EG].[G,,E,B,]) | %26
 x2 z/ (F/_F/E/) | ([F,A,B,=D].[F,,B,,A,])([A,B,=F].B,,) | x2 z/ (G/F/_F/ | %29
 !tenuto![G,B,E]/)B,,/G,/E/- !tenuto![=G,DE]/__B,,/G,/E/- | %30
 !tenuto![F,CE]/A,,/F,/C/ [F,C]/-E/-[F,CE] | D[=CEG][_C=D-A-][B,DA] | [B,EG]2 z2 || %33
[K:Eb] .E,,.[B,EG].B,,.[B,EG] | (E,.[B,DG]).B,,.[B,DG] | .E,,.[B,CG].C,.[B,C] | z F=E_E | %37
 .B,,.[A,CF].F,.[A,CF] | (B,,.[A,C=E]).F,,.[A,CE] | .B,,.[A,C_E].A,,.[F,=B,] | %40
 ([G,,F,=B,][_G,,_F,_B,][F,,E,_A,][_F,,_C,A,] | %41
 !>![E,,B,,G,])[G,B,E]/[G,B,E]/ !>![B,,,B,,][G,B,E] | %42
!8vb(! !>![E,,,E,,]!8vb)![G,B,D]/[G,B,D]/ [B,,,B,,][G,B,D] | %43
 [E,,E,][G,B,C]/[G,B,C]/ [C,,C,][G,B,E] | [F,,F,].[F,B,D]/.[F,=A,^C]/ .[F,B,D] z | %45
 [F,,F,].[=A,EF]/.[A,E=E]/ .[A,_EF]F, | F,,.[B,DF]/.[B,D=E]/ .[B,DF][=B,,A,D] | %47
 ([C,G,_E].[_B,EG])([F,,E,=A,].[F,A,E]) | [B,,,F,,]B,/D/ [B,F] z | %49
 !tenuto![=A,D^F]2 !tenuto![_A,_D=F]2 | ([F,,B,,=D,A,].[A,=DF])([B,,,B,,].[A,DF]) | %51
 B,,!tenuto![=A,D^F]B,,,!tenuto![_A,D=F] | ([E,,B,,G,].[G,CE])([B,,,B,,].[A,CF]) | %53
 ([E,,B,,G,].[B,EG])[G,,E,B,][_G,,E,=A,] | z/ (B,/C/^C/ D) z | z/ (D/E/=E/ F) z | %56
 [E,,B,,G,] ([B,CE][=A,_CE][_A,B,D^F] | !tenuto![G,CEG]2) !tenuto![^F,=B,D^F]2 | %58
 ([=F,,_B,,D,A,].[F,A,D])([B,,,B,,].[F,A,D]) | B,,!tenuto![=A,^CG][B,,,B,,]!tenuto![_A,=CDA] | %60
 ([E,,B,,G,].[CEGB])[B,,,B,,] (^F, | G,B,=B,D | CDEF) | (D_DC_C) | [G,B,E] z x2 || %65
[K:Gb] ([E,,B,,G,].[G,B,E])([G,,E,B,].[B,EG]) | %66
 ([F,,B,,A,].[A,EF])!<(! (6:4:6[B,,=D,]/E,/_F,/=F,/G,/=G,/!<)! | %67
 (!>![F,,B,,=D,A,].[A,CF])([B,,A,C].[A,C=D]) | [E,,B,,G,] (_D=C_C) | x2 (3([D,B,]/E/=G/B) | %70
 (6:4:6(C,/A,/E/[K:treble]F/G/=G/ A)c | %71
[K:bass] (3(B,,/A,/=D/!tenuto![A,DF]!tenuto![B,=CEG]!tenuto![CDFA] | !tenuto![_DEGB]2) =C x | %73
!p! (6:4:6(E,,/B,,/F,/G,/A,/=A,/ (6:4:6[G,B,]/F,/_F,/E,/B,,/G,,/ | %74
 (6:4:6F,,/B,,/=D,/A,/=A,/B,/ (3_D/=D/=E/F) | (6:4:6(B,,/A,/B,/C/=C/D/ (6:4:6[=DF]/_D/C/_C/B,/A,/ | %76
 (6:4:6G,/B,,/E,/F,/G,/A,/ (6:4:6B,/=C/=D/E/_F/=F/) | G/E/[E,B,]/E/ =G/E/[E,B,]/E/ | z A =A2 | %79
 (6:4:6B,,/F,/A,/C/=C/D/ (6:4:6=D/E/F/G/A/=A/ | z4 ||[K:Eb][K:treble] z{/=A} (!tenuto!B2 .B) | %82
 z!8va(!{/=a'} (!tenuto!b'2!8va)! .B) | z{/=A} (!tenuto!B2 .B) | %84
 z!8va(!!8va(!{/=a'} (!tenuto!b'2!8va)!!8va)! .B) | z{/=A} (!tenuto!B2 .B) | %86
 z!8va(!!8va(!{/=a'} (!tenuto!b'2!8va)!!8va)! .B) | z{/=A} (!tenuto!B2{/G} !tenuto!_A) | %88
 [EB]/[K:bass]([D,D]/[_D,_D]/[C,C]/[_C,_C]/[B,,B,]/=A,/_A,/ | %89
 !>![E,,B,,G,])[G,B,E]/[G,B,E]/ !>![B,,,B,,][G,B,E] | %90
 !>![E,,,E,,][G,B,D]/[G,B,D]/ !>![B,,,B,,][G,B,D] | !>![E,,E,][G,B,C]/[G,B,C]/ !>![C,,C,][G,B,E] | %92
 !>![F,,F,][F,B,D]/[F,=A,^C]/ [F,B,D]/ z/ z |{/=E,} F,([CE=A]/[CE^G]/ [CEA])F, | %94
 F,([D_GB]/[DFB]/ [DGB])[_D,A,_CF] | ([C,G,B,=E].[B,E=A])([F,,C,E,=A,].[A,_EF]) | %96
!<(! (6:4:6(B,,,/F,,/B,,/D,/F,/=A,/!<)! !^!B,) z | z !>![_C_DFA]!>![B,=CEG]!>![__B,_CE_G] | %98
 ([A,_B,=DF].A)!8vb(! [B,,,,B,,,] z!8vb)! | z (!>![B,CEG] [=A,=B,D^F])!>![_A,_C_D=F] | %100
 ([G,_B,=CE].G)([B,,,B,,].[A,CEG]) | %101
 !tenuto![E,,B,,G,][G,B,E](!tenuto![G,,C,E,B,]!tenuto![^F,,C,E,=A,]) | %102
 (6:4:6([=F,,B,,]/D,/_A,/B,/C/^C/ !>![A,D])=E, | %103
 (6:4:6([F,B,]/D/[K:treble]A/B/c/^c/ !>![Ad])[K:bass]^F, | %104
 (3([B,,G,]/E,/B,/[=B,E] [CEG])(3(_D/C/_C/ | (6:4:6B,/=C/=D/E/F/^F/[K:treble](6:4:6G/B/c/d/e/=e/) | %106
 (.f/.d/.B/.A/ .F/.D/)(3(B,/C/_D/ | (6:4:6=D/E/=E/F/_G/=G/(6:4:6A/B/=B/c/_d/=d/) | %108
 (.e/.c/.B/.G/.E/.C/)[K:bass]"_marcato la melodia"([B,,B,]/[A,B,]/ | E/D/G/F/E/D/=B,/D/) | %110
 (D/C/=B,/C/F,/G,/_B,/A,/) | G,/A,/=A,/B,/ _C/=C/_D/=D/ | [E,G,E][K:treble] x (_c/=c/_d/=d/ | %113
 [EGe]) x (6:4:6B/=A/_A/G/F/_F/ | E[K:bass](3E,/F,/G,/ (6:4:6A,/B,/C/D/E/F/ | %115
[K:treble] (6:4:6G/A/B/c/d/e/(6:4:6f/g/a/b/c'/d'/ | !^!e' z z[K:bass] ([G,B,] | B,4) | %118
 z !tenuto![_G,B,E_G]2 z | !tenuto![_G,B,CE_G]2 z2 ||[K:Gb]!>(!{/=C,} B,,(.[=CDA].[B,DG].[A,B,DF] | %121
 .[G,B,E])!>)![E,,B,,G,][K:treble]!8va(! [gb=c'e'g']!8va)! !fermata!z |] %122
V:3
 x2 | x4 | x4 | x4 | x4 | x4 | x4 | x4 | x4 | x4 | x4 | x4 | x4 | x4 | .[cea] z z2 | x4 | x4 | %17
[K:bass] x4 | x4 | x4 | x x [G,B,]2 | x4 | x4 | x4 | [B,=CE]2 ([__B,_CE][A,_B,=D]) | x4 | %26
 ([A,EF].[F,,B,,A,]) !tenuto![F,A,B,]2 | x4 | ([G,B,F].[E,,B,,G,]) !tenuto![G,B,]2 | x4 | x4 | %31
 B,,2 (!tenuto!G,!tenuto!F,- | F,/G,/E,/C,/ .B,,/.A,,/.G,,/.F,,/) ||[K:Eb] x4 | x4 | x4 | %36
 F, [A,C]3 | x4 | x4 | x4 | x4 | x4 |!8vb(! x!8vb)! x3 | x4 | x4 | x4 | x4 | x4 | x4 | x4 | x4 | %51
 x4 | x4 | x4 | [F,,B,,D,_A,]/ z/ z [A,=C](F,, | [B,,,B,,]/) z/ z [A,D]B,, | x4 | x4 | x4 | x4 | %60
 x4 | [E,,B,,]2 [G,,F,]2 | [A,,E,F,]2 [C,F,A,]2 | [B,,E,G,]2 [B,,A,]2 | %64
 z/ (B,,/E,/G,/ B,[B,,A,]) ||[K:Gb] x4 | x4 | x4 | x [G,B,]3 | x4 | x[K:treble] x3 |[K:bass] x4 | %72
 x4 | x4 | x4 | x4 | x4 | !tenuto!G2 !tenuto!=G2 | [=C,A,]/E/A/E/ =A/E/[F,_C] | x4 | x4 || %81
[K:Eb][K:treble] E z B, z | E!8va(! z!8va)! B, z | E z B, z | E!8va(!!8va(! z!8va)!!8va)! B, z | %85
 E z B, z | E!8va(!!8va(! z!8va)!!8va)! B, z | E z B, z | x3[K:bass] B,, | x4 | x4 | x4 | x4 | x4 | %94
 x4 | x4 | x4 | x4 | x2!8vb(! x2!8vb)! | x4 | x4 | x4 | x4 | x2/3[K:treble] x7/3[K:bass] x | x4 | %105
 x2[K:treble] x2 | x4 | x4 | x3[K:bass] x | [E,G,] z G, z | A, z A,, z | B,, z [B,,_A,] z | %112
 x2[K:treble] [B,A]2 | x4 | x[K:bass] x3 |[K:treble] x4 | x3[K:bass] x | %117
 [^F,=A,][=F,_A,] [_F,G,]2 | [_C,,_G,,E,]3{D,_D,} [A,,,E,,=C,]- | [A,,,E,,C,]2 x2 ||[K:Gb] x4 | %121
 x2[K:treble]!8va(! x!8va)! x |] %122
V:4
 x/!8va(! x3/2 | x4 | x4 | x4 | x4 | x4 | x4 | x4 | x4 | x4 | x4 | x4 | x4 | x4 | x4 | x4 | %16
 x2 z/!8va)! G/[=A=c]/[B-=d]/ | [Be]>_c !tenuto!=c2- | c(=c[ce][B=d]) | =c>d =d2- | d(=d[df]e) | %21
 !arpeggio![egb]2 !arpeggio![e=gb]2 | (!arpeggio!ea/=g/ _g/f/_f/e/ | =d)def | %24
 !arpeggio!B(e/=d/ _d/=c/_c/B/-) | B>(c =c/e/=d/_d/ | =c3) z | =c>d =d/f/_f/e/ | =d3 z | %29
 !arpeggio![Bgb]2 !arpeggio![d=gc']2 | !arpeggio![ceb]e/d/ c/B/[I:staff +1]A/=G/ | %31
[I:staff -1] [_Ge][eg][=dg][=c_a] | x4 ||[K:Eb] x4 | x4 | x4 | x4 | x4 | x4 | x4 | %40
 [G=B][_B_d_f][eg][^fb] | x4 | x4 | x4 | x4 | x4 | x4 | x4 | x4 | !tenuto![d^f]2 !tenuto![_d=f]2 | %50
 x4 | [d^f]2 [d=f]2 | x4 | x4 | x4 | x4 | [eg][ce][_ce][d^f] | !tenuto![eg]2 !tenuto![d^f]2 | x4 | %59
 [d^f]2 [d=f]2 | x4 | x4 | x4 | G3 =D | x4 || %65
[K:Gb] (6:4:6(!arpeggio!B/c/=c/d/=d/c'/ (6:4:6e/=e/f/g/f/_f/ | %66
 (6:4:6_e/=d/_d/=c/d/c/ (3_c/=c/_c/B-) | (6:4:6(B/c/=c/d/=d/c'/ (6:4:6d/e/=e/f/e/f/ | %68
 (6:4:6g/e'/=d'/_d'/=c'/_c'/ (6:4:6b/=a/_a/g/e/B/) | %69
[I:staff +1] (6:4:6([E,B,]/E/G/[I:staff -1]B/e/g/ (6:4:6=g/a/=a/b/c'/d'/) | %70
 z2 (6:4:6c/d/=d/e/_f/=f/ | a(3G/A/=A/ (6:4:6B/=c/d/=d/e/f/ | %72
 (6:4:6g/e/=d/_d/=c/_c/ (6:4:6B/G/E/[I:staff +1]_C/B,/B,,/ | %73
[I:staff -1] .G/.A/.B/.c/.=c/.e/.=d/._d/ | .=c/.d/.=d/.e/ .=e/.f/(3A/B/_c/ | =c/d/=d- d/_d/=c/_c/ | %76
 .B/.c/.=c/.d/ .=d/.e/.=e/.f/ | (6:4:6([eg]/b/g/"^accel."B/g/b/ (6:4:6[e=g]/b/g/B/g/b/) | %78
 (6:4:6([ea]/=d'/_d'/=c'/_c'/b/ (6:4:6=a/_a/=g/_g/f/_f/) | e/ x/ x x2 | %80
 (6:4:6B/=c/=d/e/=e/f/ (6:4:6g/a/=a/b/=c'/=d'/ ||[K:Eb] x4 | x4 | x4 | x4 | x4 | x4 | x4 | x4 | %89
 x4 | x4 | x4 | x4 | x4 | x4 | (6:4:6c'/=b/_b/=a/g/_g/ (6:4:6f/=e/_e/d/c/_c/ | x4 | x4 | x4 | x4 | %100
 x4 | x4 | x4 | z (3(d/e/=e/ f/) z/ z | z (3G/A/=A/ (3_B/=B/c/ z | x4 | x4 | x4 | x4 | x!8va(! x3 | %110
 x2!8va)! x2 | x4 | x2!8va(! x2 | x4/3!8va)! x2/3!8va(! x2 | x!8va)! x3 | x!8va(! x3 | x!8va)! x3 | %117
 x4 | !arpeggio![_G,B,EB]3 !arpeggio![_G,CEB]- | [G,CEB]2 x2 ||[K:Gb] z [=da][dg][df] | %121
 x2!8va(! x!8va)! x |] %122

